X:0917
T:The Scots Queen.
S:Aird v5 p45
M:C
L:1/8
Q:1/4=80 "Slow"
I: :: ||
Z:Jack Campin * www.campin.me.uk * 2009
K:E Minor
F|G2FE B2e2|dcBA B3B|edcB cBAG|BAGF E3F|
  G2FE B2e2|dcBA B3B|edcB cBAG|BAGF E3:|
F|GABc d3 e|dBAB c3d|cBAG d2cB|edcB A3B|
  E2e2 edcB|dcBA B3A|G2FE A2e2|dcBA B3f|gfe^d e2Ac|BAGF E3:|

